images/bathasu-logo.svg

<svg fill="none" height="28" viewBox="0 0 165 28" width="165" xmlns="http://www.w3.org/2000/svg"><path d="m102.228 27.4818h-.798c-4.8201 0-8.7407-3.9213-8.7407-8.7412v-3.9465c0-2.8384-2.3086-5.14771-5.1468-5.14771h-1.9492c-2.8386 0-5.1475 2.30931-5.1475 5.14771v3.9465c0 2.8381 2.3089 5.1472 5.1475 5.1472h1.9492c1.3729 0 2.6814-.5294 3.6837-1.4929l.8403-.836.2306.6184c.3135.8401.7503 1.6278 1.2982 2.3404l.2306.3004-.271.264c-1.5926 1.5473-3.7275 2.3997-6.0124 2.3997h-1.9492c-4.8201 0-8.7408-3.9213-8.7408-8.7412v-3.9465c0-4.8199 3.9207-8.74104 8.7408-8.74104h1.9492c4.8199 0 8.7406 3.92114 8.7406 8.74104v3.9465c0 2.8381 2.3087 5.1472 5.1469 5.1472h.798z" fill="#97999b"/><path d="m104.078 27.4818h-.798v-3.594h.798c2.838 0 5.147-2.3091 5.147-5.1472v-3.9465c0-4.8199 3.921-8.74104 8.741-8.74104h.798v3.59333h-.798c-2.838 0-5.147 2.30931-5.147 5.14771v3.9465c0 4.8199-3.921 8.7412-8.741 8.7412z" fill="#97999b"/><path d="m128.748 27.4818h.003l.178-.0034c4.707-.1083 8.537-4.0288 8.537-8.7378v-12.68733h-3.595v12.68733c0 2.8288-2.299 5.1377-5.124 5.1472-2.837 0-5.146-2.3091-5.146-5.1472v-12.68733h-3.594v12.68733c0 4.816 3.921 8.7372 8.741 8.7412z" fill="#97999b"/><g fill="#00a3e0"><path clip-rule="evenodd" d="m8.83336 27.5535h1.94834c4.8707 0 8.8334-3.9631 8.8334-8.8342v-3.9443c0-4.871-3.9627-8.83362-8.8334-8.83362h-1.94834c-1.82198 0-3.58291.55925-5.04581 1.59011v-7.53149h-3.78755v18.7193c0 4.8711 3.96262 8.8342 8.83336 8.8342zm-5.04581-12.7785c0-2.7825 2.26338-5.04607 5.04581-5.04607h1.94834c2.782 0 5.0458 2.26357 5.0458 5.04607v3.9443c0 2.7824-2.2638 5.0464-5.0458 5.0464h-1.94834c-2.78243 0-5.04581-2.264-5.04581-5.0464z" fill-rule="evenodd"/><path d="m55.9153 27.5152h.8954v-3.7716h-.8954c-2.755 0-4.9962-2.241-4.9962-4.9965v-8.90501l3.5903-.0034v-3.76032l-.4175-.00766s-1.2479-.02318-3.1728-.02872v-5.865432h-3.7708v18.570542c0 4.8346 3.9331 8.7681 8.767 8.7681z"/><path d="m75.6714 27.5273h-3.7222v-12.6915c0-2.7552-2.2415-4.99668-4.9967-4.99668-2.7545 0-4.996 2.24148-4.996 4.99668v12.6794h-3.7712v-27.338642h3.7712v7.461932c1.4495-1.01767 3.1925-1.57012 4.996-1.57012 4.8076 0 8.7189 3.93303 8.7189 8.76743z"/><path d="m45.6657 27.4818h.7977v-3.594h-.7977c-2.8382 0-5.1473-2.3091-5.1473-5.1472v-3.9465c0-4.8199-3.9209-8.74104-8.7404-8.74104h-1.949c-4.8199 0-8.7406 3.92114-8.7406 8.74104v3.9465c0 4.8199 3.9207 8.7412 8.7406 8.7412h1.949c2.2851 0 4.4202-.8524 6.012-2.3997l.2716-.264-.2306-.3004c-.549-.7143-.9855-1.5016-1.298-2.3404l-.2304-.6184-.8407.836c-1.0025.9635-2.3106 1.4929-3.6839 1.4929h-1.949c-2.8382 0-5.1473-2.3091-5.1473-5.1472v-3.9465c0-2.8384 2.3091-5.1477 5.1473-5.1477h1.949c2.8381 0 5.1473 2.3093 5.1473 5.1477v3.9465c0 4.8199 3.9209 8.7412 8.7404 8.7412z"/><path d="m146.968 21.7993c-.663 0-1.283-.3599-1.619-.9379-.935-1.6167-1.429-3.4572-1.429-5.3221 0-5.87334 4.78-10.65176 10.656-10.65176 1.03 0 1.869.84133 1.869 1.87538 0 1.03447-.841 1.8758-1.875 1.8758-3.805 0-6.9 3.09578-6.9 6.90058 0 1.208.32 2.3997.926 3.4476.163.2812.248.605.248.936 0 1.0344-.841 1.8764-1.876 1.8764z"/><path d="m148.918 15.5393c0-1.6391.698-3.1147 1.812-4.1471-.096 1.1668.471 2.3389 1.552 2.963.484.2798 1.021.4212 1.56.4212.96-.0006 1.933.2396 2.824.7539 1.419.8199 2.349 2.1619 2.686 3.6434-.963-.6667-2.262-.762-3.343-.1379-.484.2793-.875.6733-1.144 1.1391-.48.8339-1.174 1.5555-2.065 2.0699-1.42.8189-3.047.953-4.498.5045 1.058-.5009 1.79-1.578 1.79-2.8264 0-.5582-.146-1.0943-.415-1.5604-.481-.8324-.759-1.7949-.759-2.8232z"/><path d="m149.985 28c-3.802 0-7.342-2.0426-9.239-5.3298-.515-.8922-.205-2.0387.69-2.555.869-.5023 2.065-.1762 2.561.6847 1.23 2.129 3.522 3.4513 5.983 3.4513 1.203 0 2.395-.3202 3.443-.9254 1.047-.6037 1.919-1.4773 2.523-2.5267.164-.2812.401-.5169.688-.682.867-.5027 2.064-.1751 2.561.6864.332.575.331 1.2923-.003 1.8712-.932 1.6167-2.278 2.9647-3.893 3.8975-1.618.9341-3.455 1.4278-5.314 1.4278z"/><path d="m160.503 26.4365c.287.1665.613.2535.941.2535.665 0 1.285-.3575 1.617-.9332 1.423-2.4637 1.801-5.3349 1.065-8.0843-.737-2.7503-2.499-5.0478-4.961-6.4696-1.614-.932-3.453-1.4242-5.323-1.4242-.669.00149-1.291.3591-1.622.933-.517.8956-.209 2.0451.686 2.5625.288.1659.611.2535.941.2535 1.209 0 2.399.3187 3.443.9214 3.295 1.9026 4.427 6.1309 2.526 9.4262-.517.8953-.209 2.044.687 2.5612z"/></g></svg>

<svg width="165" height="28" viewBox="0 0 165 28" fill="none" xmlns="http://www.w3.org/2000/svg">
<path d="M102.228 27.4818H101.43C96.6099 27.4818 92.6893 23.5605 92.6893 18.7406V14.7941C92.6893 11.9557 90.3807 9.64639 87.5425 9.64639H85.5933C82.7547 9.64639 80.4458 11.9557 80.4458 14.7941V18.7406C80.4458 21.5787 82.7547 23.8878 85.5933 23.8878H87.5425C88.9154 23.8878 90.2239 23.3584 91.2262 22.3949L92.0665 21.5589L92.2971 22.1773C92.6106 23.0174 93.0474 23.8051 93.5953 24.5177L93.8259 24.8181L93.5549 25.0821C91.9623 26.6294 89.8274 27.4818 87.5425 27.4818H85.5933C80.7732 27.4818 76.8525 23.5605 76.8525 18.7406V14.7941C76.8525 9.9742 80.7732 6.05306 85.5933 6.05306H87.5425C92.3624 6.05306 96.2831 9.9742 96.2831 14.7941V18.7406C96.2831 21.5787 98.5918 23.8878 101.43 23.8878H102.228V27.4818Z" fill="#97999B"/>
<path d="M104.078 27.4818H103.28V23.8878H104.078C106.916 23.8878 109.225 21.5787 109.225 18.7406V14.7941C109.225 9.9742 113.146 6.05306 117.966 6.05306H118.764V9.64639H117.966C115.128 9.64639 112.819 11.9557 112.819 14.7941V18.7406C112.819 23.5605 108.898 27.4818 104.078 27.4818Z" fill="#97999B"/>
<path d="M128.748 27.4818H128.751L128.929 27.4784C133.636 27.3701 137.466 23.4496 137.466 18.7406V6.05327H133.871V18.7406C133.871 21.5694 131.572 23.8783 128.747 23.8878C125.91 23.8878 123.601 21.5787 123.601 18.7406V6.05327H120.007V18.7406C120.007 23.5566 123.928 27.4778 128.748 27.4818Z" fill="#97999B"/>
<path fill-rule="evenodd" clip-rule="evenodd" d="M8.83336 27.5535H10.7817C15.6524 27.5535 19.6151 23.5904 19.6151 18.7193V14.775C19.6151 9.904 15.6524 5.94138 10.7817 5.94138H8.83336C7.01138 5.94138 5.25045 6.50063 3.78755 7.53149V0H0V18.7193C0 23.5904 3.96262 27.5535 8.83336 27.5535ZM3.78755 14.775C3.78755 11.9925 6.05093 9.72893 8.83336 9.72893H10.7817C13.5637 9.72893 15.8275 11.9925 15.8275 14.775V18.7193C15.8275 21.5017 13.5637 23.7657 10.7817 23.7657H8.83336C6.05093 23.7657 3.78755 21.5017 3.78755 18.7193V14.775Z" fill="#00A3E0"/>
<path d="M55.9153 27.5152H56.8107V23.7436H55.9153C53.1603 23.7436 50.9191 21.5026 50.9191 18.7471V9.84209L54.5094 9.83869V6.07837L54.0919 6.07071C54.0919 6.07071 52.844 6.04753 50.9191 6.04199V0.176558H47.1483V18.7471C47.1483 23.5817 51.0814 27.5152 55.9153 27.5152Z" fill="#00A3E0"/>
<path d="M75.6714 27.5273H71.9492V14.8358C71.9492 12.0806 69.7077 9.83912 66.9525 9.83912C64.198 9.83912 61.9565 12.0806 61.9565 14.8358V27.5152H58.1853V0.176558H61.9565V7.63849C63.406 6.62082 65.149 6.06837 66.9525 6.06837C71.7601 6.06837 75.6714 10.0014 75.6714 14.8358V27.5273Z" fill="#00A3E0"/>
<path d="M45.6657 27.4818H46.4634V23.8878H45.6657C42.8275 23.8878 40.5184 21.5787 40.5184 18.7406V14.7941C40.5184 9.9742 36.5975 6.05306 31.778 6.05306H29.829C25.0091 6.05306 21.0884 9.9742 21.0884 14.7941V18.7406C21.0884 23.5605 25.0091 27.4818 29.829 27.4818H31.778C34.0631 27.4818 36.1982 26.6294 37.79 25.0821L38.0616 24.8181L37.831 24.5177C37.282 23.8034 36.8455 23.0161 36.533 22.1773L36.3026 21.5589L35.4619 22.3949C34.4594 23.3584 33.1513 23.8878 31.778 23.8878H29.829C26.9908 23.8878 24.6817 21.5787 24.6817 18.7406V14.7941C24.6817 11.9557 26.9908 9.6464 29.829 9.6464H31.778C34.6161 9.6464 36.9253 11.9557 36.9253 14.7941V18.7406C36.9253 23.5605 40.8462 27.4818 45.6657 27.4818Z" fill="#00A3E0"/>
<path d="M146.968 21.7993C146.305 21.7993 145.685 21.4394 145.349 20.8614C144.414 19.2447 143.92 17.4042 143.92 15.5393C143.92 9.66596 148.7 4.88754 154.576 4.88754C155.606 4.88754 156.445 5.72887 156.445 6.76292C156.445 7.79739 155.604 8.63872 154.57 8.63872C150.765 8.63872 147.67 11.7345 147.67 15.5393C147.67 16.7473 147.99 17.939 148.596 18.9869C148.759 19.2681 148.844 19.5919 148.844 19.9229C148.844 20.9573 148.003 21.7993 146.968 21.7993Z" fill="#00A3E0"/>
<path d="M148.918 15.5393C148.918 13.9002 149.616 12.4246 150.73 11.3922C150.634 12.559 151.201 13.7311 152.282 14.3552C152.766 14.635 153.303 14.7764 153.842 14.7764C154.802 14.7758 155.775 15.016 156.666 15.5303C158.085 16.3502 159.015 17.6922 159.352 19.1737C158.389 18.507 157.09 18.4117 156.009 19.0358C155.525 19.3151 155.134 19.7091 154.865 20.1749C154.385 21.0088 153.691 21.7304 152.8 22.2448C151.38 23.0637 149.753 23.1978 148.302 22.7493C149.36 22.2484 150.092 21.1713 150.092 19.9229C150.092 19.3647 149.946 18.8286 149.677 18.3625C149.196 17.5301 148.918 16.5676 148.918 15.5393Z" fill="#00A3E0"/>
<path d="M149.985 28C146.183 28 142.643 25.9574 140.746 22.6702C140.231 21.778 140.541 20.6315 141.436 20.1152C142.305 19.6129 143.501 19.939 143.997 20.7999C145.227 22.9289 147.519 24.2512 149.98 24.2512C151.183 24.2512 152.375 23.931 153.423 23.3258C154.47 22.7221 155.342 21.8485 155.946 20.7991C156.11 20.5179 156.347 20.2822 156.634 20.1171C157.501 19.6144 158.698 19.942 159.195 20.8035C159.527 21.3785 159.526 22.0958 159.192 22.6747C158.26 24.2914 156.914 25.6394 155.299 26.5722C153.681 27.5063 151.844 28 149.985 28Z" fill="#00A3E0"/>
<path d="M160.503 26.4365C160.79 26.603 161.116 26.69 161.444 26.69C162.109 26.69 162.729 26.3325 163.061 25.7568C164.484 23.2931 164.862 20.4219 164.126 17.6725C163.389 14.9222 161.627 12.6247 159.165 11.2029C157.551 10.2709 155.712 9.7787 153.842 9.7787C153.173 9.78019 152.551 10.1378 152.22 10.7117C151.703 11.6073 152.011 12.7568 152.906 13.2742C153.194 13.4401 153.517 13.5277 153.847 13.5277C155.056 13.5277 156.246 13.8464 157.29 14.4491C160.585 16.3517 161.717 20.58 159.816 23.8753C159.299 24.7706 159.607 25.9193 160.503 26.4365Z" fill="#00A3E0"/>
</svg>
